X:183
T:Fanteguten skulle ut å frie
T:(Fanteguten)
S:efter [[Personer/Sigrid Andersdotter]] (Hultman) eller [[Personer/Krykje-Kari]]
O:Hulteberg, Värmland
D:Ulrika Bodéns Vålje å Vrake (Låten går där i dur. Klicka på länken för ljudprov)
B:EÖ, nr 183
R:Visa
Z:Nils L
M:3/4
L:1/8
K:Gm
d2 d>c A>B | G2 G>G A2 | ^F2 F>G A>B | c2 =e>e d2 |
d2 dc AB | G2 GG A2 | ^F2 F>G A>B A/ | A2 A>B G2 |]
| F2 F>G A>A | A>B G2z2 |
